src/main/resources/icons/JadeIcons/icons/jade.svg

<svg xmlns="http://www.w3.org/2000/svg" width="16" height="16" viewBox="0 0 16 16">
  <g fill="none" fill-rule="evenodd">
    <polygon fill="#62B543" fill-opacity=".7" points="1 16 16 16 16 9 1 9"/>
    <polygon fill="#9AA7B0" fill-opacity=".8" points="7 1 3 5 7 5"/>
    <polygon fill="#9AA7B0" fill-opacity=".8" points="8 1 8 6 3 6 3 8 13 8 13 1"/>
    <path fill="#1B1B1B" d="M2.207,11.0415 L2.207,10.294 L3.052,10.294 L3.052,11.0415 L2.207,11.0415 Z M2.0315,16.0595 C1.8755,16.0595 1.7715,16.0465 1.648,16.027 L1.648,15.3965 C1.726,15.4095 1.7975,15.416 1.869,15.416 C2.09,15.416 2.233,15.299 2.233,15 L2.233,11.568 L3.026,11.568 L3.026,15.0455 C3.026,15.741 2.6685,16.0595 2.0315,16.0595 Z M5.041,15.0715 C4.3975,15.0715 3.819,14.701 3.819,14.012 L3.819,13.999 C3.819,13.258 4.404,12.894 5.2425,12.894 C5.626,12.894 5.899,12.9525 6.1655,13.037 L6.1655,12.9525 C6.1655,12.465 5.8665,12.205 5.314,12.205 C4.9305,12.205 4.6445,12.2895 4.3325,12.4195 L4.118,11.802 C4.5015,11.633 4.872,11.5225 5.418,11.5225 C5.9315,11.5225 6.315,11.659 6.5555,11.906 C6.809,12.153 6.926,12.517 6.926,12.9655 L6.926,15 L6.159,15 L6.159,14.571 C5.925,14.8505 5.5675,15.0715 5.041,15.0715 Z M5.262,14.4995 C5.782,14.4995 6.1785,14.2005 6.1785,13.765 L6.1785,13.531 C5.977,13.453 5.7105,13.3945 5.3985,13.3945 C4.8915,13.3945 4.5925,13.609 4.5925,13.9665 L4.5925,13.9795 C4.5925,14.311 4.885,14.4995 5.262,14.4995 Z M9.0855,15.0715 C8.2795,15.0715 7.493,14.428 7.493,13.2905 L7.493,13.2775 C7.493,12.14 8.2665,11.4965 9.0855,11.4965 C9.651,11.4965 10.0085,11.776 10.2555,12.101 L10.2555,10.255 L11.042,10.255 L11.042,15 L10.2555,15 L10.2555,14.428 C10.002,14.7855 9.6445,15.0715 9.0855,15.0715 Z M9.274,14.389 C9.8005,14.389 10.2685,13.947 10.2685,13.2905 L10.2685,13.2775 C10.2685,12.6145 9.8005,12.179 9.274,12.179 C8.7345,12.179 8.286,12.6015 8.286,13.2775 L8.286,13.2905 C8.286,13.9535 8.741,14.389 9.274,14.389 Z M13.303,15.078 C12.3085,15.078 11.5415,14.3565 11.5415,13.297 L11.5415,13.284 C11.5415,12.3025 12.237,11.4965 13.2185,11.4965 C14.3105,11.4965 14.863,12.3545 14.863,13.3425 C14.863,13.414 14.8565,13.4855 14.85,13.5635 L12.328,13.5635 C12.4125,14.1225 12.809,14.4345 13.316,14.4345 C13.6995,14.4345 13.9725,14.2915 14.2455,14.025 L14.707,14.4345 C14.382,14.8245 13.9335,15.078 13.303,15.078 Z M12.3215,13.0435 L14.083,13.0435 C14.031,12.5365 13.732,12.14 13.212,12.14 C12.731,12.14 12.393,12.5105 12.3215,13.0435 Z"/>
  </g>
</svg>

<svg xmlns="http://www.w3.org/2000/svg" width="16" height="16" viewBox="0 0 16 16"><rect id="frame" width="16" height="16" fill="none"/><g fill="none" fill-rule="evenodd"><path fill="#62B543" fill-opacity=".7" d="M1 16h15V9H1z"/><path fill="#9AA7B0" fill-opacity=".8" d="M7 1L3 5h4z"/><path fill="#9AA7B0" fill-opacity=".8" d="M8 1v5H3v2h10V1z"/><path fill="#1B1B1B" d="M2.207 11.041v-.747h.845v.747h-.845zm-.175 5.018c-.157 0-.26-.012-.384-.032v-.63c.078.012.15.019.221.019.221 0 .364-.117.364-.416v-3.432h.793v3.478c0 .695-.357 1.014-.994 1.014zm3.009-.988c-.644 0-1.222-.37-1.222-1.059v-.013c0-.741.585-1.105 1.423-1.105.384 0 .657.059.923.143v-.085c0-.487-.298-.747-.851-.747-.383 0-.67.085-.982.214l-.214-.617a2.98 2.98 0 0 1 1.3-.28c.513 0 .897.137 1.138.384.253.247.37.611.37 1.06V15h-.767v-.429c-.234.28-.591.5-1.118.5zm.221-.572c.52 0 .917-.299.917-.734v-.234a2.18 2.18 0 0 0-.78-.136c-.508 0-.806.214-.806.572v.012c0 .332.292.52.669.52zm3.824.572c-.806 0-1.593-.643-1.593-1.78v-.014c0-1.137.774-1.78 1.592-1.78.566 0 .923.279 1.17.604v-1.846h.787V15h-.787v-.572c-.253.357-.61.643-1.17.643zm.188-.682c.527 0 .995-.442.995-1.098v-.014c0-.662-.469-1.098-.995-1.098-.54 0-.988.422-.988 1.098v.014c0 .662.455 1.098.988 1.098zm4.029.689c-.995 0-1.762-.721-1.762-1.781v-.013c0-.982.696-1.788 1.678-1.788 1.091 0 1.644.858 1.644 1.846 0 .072-.006.143-.013.221h-2.522c.085.56.481.871.988.871.383 0 .656-.143.93-.409l.461.41c-.325.39-.774.643-1.404.643zm-.982-2.034h1.762c-.052-.508-.351-.904-.871-.904-.481 0-.819.37-.89.903z"/></g></svg>
